public/logos/homeassistant.svg

<svg height="500" viewBox="0 0 500 500" width="500" xmlns="http://www.w3.org/2000/svg" xmlns:xlink="http://www.w3.org/1999/xlink"><mask id="a" fill="#fff"><path d="m44.0416131 342.222285v-133.23928h-34.70835601c-5.15461597 0-9.33325784-4.178642-9.33325784-9.333258 0-2.452512.96532312-4.806473 2.68722613-6.552859l186.96303562-189.62138737c4.523805-4.58812745 11.910486-4.64027086 16.498614-.11646556.032419.03196435.06465.06411818.096693.09645985l97.612592 98.52424008v-18.2230796c0-4.2955133 3.482201-7.7777149 7.777714-7.7777149h32.410702c4.295514 0 7.777715 3.4822016 7.777715 7.7777149v66.9245646l41.514572 42.442237c3.604371 3.684912 3.539079 9.594043-.145833 13.198414-1.744026 1.705906-4.086671 2.661134-6.526291 2.661134h-34.842448v133.23928c0 4.295513-3.482201 7.777715-7.777715 7.777715h-292.2272481c-4.2955133 0-7.7777148-3.482202-7.7777148-7.777715zm109.7543759-124.617523c2.0365-4.799473 3.16307-10.079063 3.16307-15.621971 0-22.092065-17.895974-40.001222-39.971776-40.001222-22.0758029 0-39.9717768 17.909157-39.9717768 40.001222s17.8959739 40.001223 39.9717768 40.001223c5.538827 0 10.81453-1.1274 15.61047-3.165401l50.342961 50.380047v60.788654h29.978832v-60.788654l50.34296-50.380047c4.79594 2.038001 10.071643 3.165401 15.610471 3.165401 22.075802 0 39.971776-17.909158 39.971776-40.001223s-17.895974-40.001222-39.971776-40.001222c-22.075803 0-39.971776 17.909157-39.971776 40.001222 0 5.542908 1.126569 10.822498 3.16307 15.621971l-29.144725 29.166194v-88.697092c14.648808-5.934055 24.98236-20.306147 24.98236-37.093548 0-22.0920654-17.895974-40.0012227-39.971776-40.0012227-22.075803 0-39.971777 17.9091573-39.971777 40.0012227 0 16.787401 10.333552 31.159493 24.982361 37.093548v88.697092zm44.134141-80.623957c-8.830321 0-15.988711-7.163663-15.988711-16.000489s7.15839-16.000489 15.988711-16.000489 15.98871 7.163663 15.98871 16.000489-7.158389 16.000489-15.98871 16.000489zm80.942847 81.002475c-8.830321 0-15.988711-7.163663-15.988711-16.000489s7.15839-16.000489 15.988711-16.000489 15.98871 7.163663 15.98871 16.000489-7.158389 16.000489-15.98871 16.000489zm-161.885694 0c-8.830321 0-15.988711-7.163663-15.988711-16.000489s7.15839-16.000489 15.988711-16.000489 15.98871 7.163663 15.98871 16.000489-7.158389 16.000489-15.98871 16.000489z" fill="#fff" fill-rule="evenodd"/></mask><g fill="none" fill-rule="evenodd"><path d="m0 0h500v500h-500z" fill="#41bdf5"/><g fill="#fff" fill-rule="evenodd" mask="url(#a)" transform="translate(52 70)"><path d="m0 0h396v350h-396z"/></g></g></svg>

<?xml version="1.0" encoding="UTF-8"?>
<svg width="500px" height="500px" viewBox="0 0 500 500" version="1.1" xmlns="http://www.w3.org/2000/svg" xmlns:xlink="http://www.w3.org/1999/xlink">
    <!-- Generator: Sketch 47.1 (45422) - http://www.bohemiancoding.com/sketch -->
    <title>logo-small</title>
    <desc>Created with Sketch.</desc>
    <defs>
        <path d="M44.0416131,342.222285 L44.0416131,208.983005 L9.33325709,208.983005 C4.17864112,208.983005 -7.54261257e-07,204.804363 -7.54261258e-07,199.649747 C-7.54261258e-07,197.197235 0.965322372,194.843274 2.68722538,193.096888 L189.650261,3.47550063 L189.650261,3.47550063 C194.174066,-1.11262682 201.560747,-1.16477023 206.148875,3.35903507 C206.181294,3.39099942 206.213525,3.42315325 206.245568,3.45549492 L303.85816,101.979735 L303.85816,83.7566554 L303.85816,83.7566554 C303.85816,79.4611421 307.340361,75.9789405 311.635874,75.9789405 L344.046576,75.9789405 L344.046576,75.9789405 C348.34209,75.9789405 351.824291,79.4611421 351.824291,83.7566554 L351.824291,150.68122 L393.338863,193.123457 L393.338863,193.123457 C396.943234,196.808369 396.877942,202.7175 393.19303,206.321871 C391.449004,208.027777 389.106359,208.983005 386.666739,208.983005 L351.824291,208.983005 L351.824291,342.222285 C351.824291,346.517798 348.34209,350 344.046576,350 L51.8193279,350 L51.8193279,350 C47.5238146,350 44.0416131,346.517798 44.0416131,342.222285 Z M153.795989,217.604762 C155.832489,212.805289 156.959059,207.525699 156.959059,201.982791 C156.959059,179.890726 139.063085,161.981569 116.987283,161.981569 C94.9114801,161.981569 77.0155062,179.890726 77.0155062,201.982791 C77.0155062,224.074856 94.9114801,241.984014 116.987283,241.984014 C122.52611,241.984014 127.801813,240.856614 132.597753,238.818613 L182.940714,289.19866 L182.940714,349.987314 L212.919546,349.987314 L212.919546,289.19866 L263.262506,238.818613 C268.058446,240.856614 273.334149,241.984014 278.872977,241.984014 C300.948779,241.984014 318.844753,224.074856 318.844753,201.982791 C318.844753,179.890726 300.948779,161.981569 278.872977,161.981569 C256.797174,161.981569 238.901201,179.890726 238.901201,201.982791 C238.901201,207.525699 240.02777,212.805289 242.064271,217.604762 L212.919546,246.770956 L212.919546,158.073864 C227.568354,152.139809 237.901906,137.767717 237.901906,120.980316 C237.901906,98.8882506 220.005932,80.9790933 197.93013,80.9790933 C175.854327,80.9790933 157.958353,98.8882506 157.958353,120.980316 C157.958353,137.767717 168.291905,152.139809 182.940714,158.073864 L182.940714,246.770956 L153.795989,217.604762 Z M197.93013,136.980805 C189.099809,136.980805 181.941419,129.817142 181.941419,120.980316 C181.941419,112.14349 189.099809,104.979827 197.93013,104.979827 C206.760451,104.979827 213.91884,112.14349 213.91884,120.980316 C213.91884,129.817142 206.760451,136.980805 197.93013,136.980805 Z M278.872977,217.98328 C270.042656,217.98328 262.884266,210.819617 262.884266,201.982791 C262.884266,193.145965 270.042656,185.982302 278.872977,185.982302 C287.703298,185.982302 294.861687,193.145965 294.861687,201.982791 C294.861687,210.819617 287.703298,217.98328 278.872977,217.98328 Z M116.987283,217.98328 C108.156962,217.98328 100.998572,210.819617 100.998572,201.982791 C100.998572,193.145965 108.156962,185.982302 116.987283,185.982302 C125.817604,185.982302 132.975993,193.145965 132.975993,201.982791 C132.975993,210.819617 125.817604,217.98328 116.987283,217.98328 Z" id="path-1"></path>
    </defs>
    <g id="Page-1" stroke="none" stroke-width="1" fill="none" fill-rule="evenodd">
        <g id="logo-small">
            <g id="fill/blue" fill="#41BDF5">
                <rect id="Rectangle-2" x="0" y="0" width="500" height="500"></rect>
            </g>
            <g id="house-with-small-tree" transform="translate(52.000000, 70.000000)">
                <mask id="mask-2" fill="white">
                    <use xlink:href="#path-1"></use>
                </mask>
                <g id="house-small-tree" fill-rule="nonzero"></g>
                <g id="fill/white" mask="url(#mask-2)" fill-rule="evenodd" fill="#FFFFFF">
                    <rect id="Rectangle-2" x="0" y="0" width="396" height="350"></rect>
                </g>
            </g>
        </g>
    </g>
</svg>
